; generated by Slic3r 1.3.1-dev on 2019-03-28 at 20:45:13

; external perimeters extrusion width = 0.44mm (2.38mm^3/s)
; perimeters extrusion width = 0.56mm (6.20mm^3/s)
; infill extrusion width = 0.50mm (7.31mm^3/s)
; solid infill extrusion width = 0.56mm (2.07mm^3/s)
; top infill extrusion width = 0.56mm (1.55mm^3/s)

; external perimeters extrusion width = 0.44mm (2.38mm^3/s)
; perimeters extrusion width = 0.56mm (6.20mm^3/s)
; infill extrusion width = 0.50mm (7.31mm^3/s)
; solid infill extrusion width = 0.56mm (2.07mm^3/s)
; top infill extrusion width = 0.56mm (1.55mm^3/s)

M107
M190 S55 ; set bed temperature and wait for it to be reached
M104 S205 T0 ; set temperature
M104 S205 T1 ; set temperature
G28 ; home all axes
G1 Z5 F5000 ; lift nozzle

; Filament gcode

M109 S205 T0 ; set temperature and wait for it to be reached
M109 S205 T1 ; set temperature and wait for it to be reached
G21 ; set units to millimeters
G90 ; use absolute coordinates
M82 ; use absolute distances for extrusion
G92 E0
G92 E0
T0
G1 Z0.400 F7800.000
G1 E-2.00000 F2400.00000
G92 E0
G1 X26.919 Y27.521 F7800.000
G1 E2.00000 F2400.00000
G1 F1800
G1 X28.675 Y26.021 E2.27422
G1 X30.835 Y25.205 E2.54845
G1 X32.092 Y25.087 E2.69842
G1 X79.459 Y25.087 E8.32392
G1 X153.296 Y25.270 E17.09327
G1 X155.570 Y25.673 E17.36750
G1 X157.573 Y26.822 E17.64172
G1 X159.068 Y28.582 E17.91594
G1 X159.878 Y30.744 E18.19017
G1 X159.994 Y31.985 E18.33816
G1 X159.994 Y70.825 E22.95100
G1 X159.597 Y73.099 E23.22523
G1 X158.453 Y75.105 E23.49945
G1 X156.697 Y76.604 E23.77368
G1 X154.537 Y77.420 E24.04790
G1 X153.280 Y77.539 E24.19787
G1 X105.913 Y77.539 E29.82337
G1 X32.076 Y77.355 E38.59272
G1 X29.802 Y76.952 E38.86695
G1 X27.799 Y75.803 E39.14117
G1 X26.304 Y74.044 E39.41540
G1 X25.494 Y71.882 E39.68962
G1 X25.378 Y70.641 E39.83761
G1 X25.378 Y31.801 E44.45045
G1 X25.775 Y29.526 E44.72468
G1 X26.890 Y27.573 E44.99178
G1 E34.99178 F2400.00000
G92 E0
G92 E0
T1
G1 E-2.00000 F2400.00000
G92 E0
G1 X151.451 Y68.996 F7800.000
G1 E2.00000 F2400.00000
G1 F1800
G1 X107.758 Y68.996 E7.18924
G1 X107.758 Y33.813 E11.36780
G1 X151.451 Y33.813 E16.55704
G1 X151.451 Y68.936 E20.72848
G1 X152.166 Y69.710 F7800.000
G1 F1800
G1 X107.044 Y69.710 E26.08735
G1 X107.044 Y33.099 E30.43555
G1 X152.166 Y33.099 E35.79442
G1 X152.166 Y69.650 E40.13549
G1 X152.880 Y70.425 F7800.000
G1 F1800
G1 X106.330 Y70.425 E45.66400
G1 X106.330 Y32.385 E50.18183
G1 X152.880 Y32.385 E55.71034
G1 X152.880 Y70.365 E60.22104
G1 X152.490 Y70.334 F7800.000
G1 E58.22104 F2400.00000
G92 E0
G1 X150.459 Y68.560 F7800.000
G1 E2.00000 F2400.00000
G1 F1800
G1 X151.015 Y68.004 E2.09366
G1 X151.015 Y66.991 E2.21447
G1 X149.446 Y68.560 E2.47898
G1 X148.432 Y68.560 E2.59979
G1 X151.015 Y65.977 E3.03516
G1 X151.015 Y64.963 E3.15597
G1 X147.419 Y68.560 E3.76219
G1 X146.405 Y68.560 E3.88300
G1 X151.015 Y63.950 E4.66007
G1 X151.015 Y62.936 E4.78088
G1 X145.391 Y68.560 E5.72881
G1 X144.378 Y68.560 E5.84962
G1 X151.015 Y61.923 E6.96840
G1 X151.015 Y60.909 E7.08921
G1 X143.364 Y68.560 E8.37885
G1 X142.351 Y68.560 E8.49966
G1 X151.015 Y59.895 E9.96014
G1 X151.015 Y58.882 E10.08096
G1 X141.337 Y68.560 E11.71230
G1 X140.323 Y68.560 E11.83311
G1 X151.015 Y57.868 E13.63530
G1 X151.015 Y56.855 E13.75611
G1 X139.310 Y68.560 E15.72916
G1 X138.296 Y68.560 E15.84997
G1 X151.015 Y55.841 E17.99387
G1 X151.015 Y54.828 E18.11469
G1 X137.283 Y68.560 E20.42944
G1 X136.269 Y68.560 E20.55025
G1 X151.015 Y53.814 E23.03586
G1 X151.015 Y52.800 E23.15667
G1 X135.255 Y68.560 E25.81314
G1 X134.242 Y68.560 E25.93395
G1 X151.015 Y51.787 E28.76126
G1 X151.015 Y50.773 E28.88207
G1 X133.228 Y68.560 E31.88024
G1 X132.215 Y68.560 E32.00106
G1 X151.015 Y49.760 E35.17008
G1 X151.015 Y48.746 E35.29089
G1 X131.201 Y68.560 E38.63077
G1 X130.187 Y68.560 E38.75158
G1 X151.015 Y47.732 E42.26231
G1 X151.015 Y46.719 E42.38312
G1 X129.174 Y68.560 E46.06471
G1 X128.160 Y68.560 E46.18552
G1 X151.015 Y45.705 E50.03796
G1 X151.015 Y44.692 E50.15877
G1 X127.147 Y68.560 E54.18206
G1 X126.133 Y68.560 E54.30287
G1 X151.015 Y43.678 E58.49702
G1 X151.015 Y42.664 E58.61783
G1 X125.119 Y68.560 E62.98283
G1 X124.106 Y68.560 E63.10364
G1 X151.015 Y41.651 E67.63949
G1 X151.015 Y40.637 E67.76030
G1 X123.092 Y68.560 E72.46701
G1 X122.079 Y68.560 E72.58782
G1 X151.015 Y39.624 E77.46538
G1 X151.015 Y38.610 E77.58619
G1 X121.065 Y68.560 E82.63461
G1 X120.052 Y68.560 E82.75542
G1 X151.015 Y37.596 E87.97469
G1 X151.015 Y36.583 E88.09550
G1 X119.038 Y68.560 E93.48562
G1 X118.024 Y68.560 E93.60643
G1 X151.015 Y35.569 E99.16741
G1 X151.015 Y34.556 E99.28822
G1 X117.011 Y68.560 E105.02005
G1 X115.997 Y68.560 E105.14086
G1 X150.308 Y34.249 E110.92432
G1 X149.294 Y34.249 E111.04513
G1 X114.984 Y68.560 E116.82858
G1 X113.970 Y68.560 E116.94939
G1 X148.281 Y34.249 E122.73285
G1 X147.267 Y34.249 E122.85366
G1 X112.956 Y68.560 E128.63712
G1 X111.943 Y68.560 E128.75793
G1 X146.253 Y34.249 E134.54139
G1 X145.240 Y34.249 E134.66220
G1 X110.929 Y68.560 E140.44566
G1 X109.916 Y68.560 E140.56647
G1 X144.226 Y34.249 E146.34992
G1 X143.213 Y34.249 E146.47074
G1 X108.902 Y68.560 E152.25419
G1 X108.195 Y68.560 E152.33851
G1 X108.195 Y68.254 E152.37500
G1 X142.199 Y34.249 E158.10685
G1 X141.185 Y34.249 E158.22766
G1 X108.195 Y67.240 E163.78865
G1 X108.195 Y66.226 E163.90946
G1 X140.172 Y34.249 E169.29959
G1 X139.158 Y34.249 E169.42041
G1 X108.195 Y65.213 E174.63969
G1 X108.195 Y64.199 E174.76050
G1 X138.145 Y34.249 E179.80893
G1 X137.131 Y34.249 E179.92974
G1 X108.195 Y63.186 E184.80731
G1 X108.195 Y62.172 E184.92813
G1 X136.117 Y34.249 E189.63485
G1 X135.104 Y34.249 E189.75566
G1 X108.195 Y61.159 E194.29152
G1 X108.195 Y60.145 E194.41234
G1 X134.090 Y34.249 E198.77735
G1 X133.077 Y34.249 E198.89816
G1 X108.195 Y59.131 E203.09232
G1 X108.195 Y58.118 E203.21313
G1 X132.063 Y34.249 E207.23644
G1 X131.049 Y34.249 E207.35725
G1 X108.195 Y57.104 E211.20970
G1 X108.195 Y56.091 E211.33051
G1 X130.036 Y34.249 E215.01211
G1 X129.022 Y34.249 E215.13292
G1 X108.195 Y55.077 E218.64367
G1 X108.195 Y54.063 E218.76448
G1 X128.009 Y34.249 E222.10437
G1 X126.995 Y34.249 E222.22518
G1 X108.195 Y53.050 E225.39422
G1 X108.195 Y52.036 E225.51503
G1 X125.981 Y34.249 E228.51322
G1 X124.968 Y34.249 E228.63403
G1 X108.195 Y51.023 E231.46136
G1 X108.195 Y50.009 E231.58217
G1 X123.954 Y34.249 E234.23865
G1 X122.941 Y34.249 E234.35946
G1 X108.195 Y48.995 E236.84508
G1 X108.195 Y47.982 E236.96589
G1 X121.927 Y34.249 E239.28066
G1 X120.913 Y34.249 E239.40147
G1 X108.195 Y46.968 E241.54539
G1 X108.195 Y45.955 E241.66620
G1 X119.900 Y34.249 E243.63926
G1 X118.886 Y34.249 E243.76008
G1 X108.195 Y44.941 E245.56228
G1 X108.195 Y43.927 E245.68310
G1 X117.873 Y34.249 E247.31445
G1 X116.859 Y34.249 E247.43526
G1 X108.195 Y42.914 E248.89576
G1 X108.195 Y41.900 E249.01657
G1 X115.845 Y34.249 E250.30622
G1 X114.832 Y34.249 E250.42703
G1 X108.195 Y40.887 E251.54583
G1 X108.195 Y39.873 E251.66664
G1 X113.818 Y34.249 E252.61458
G1 X112.805 Y34.249 E252.73539
G1 X108.195 Y38.859 E253.51248
G1 X108.195 Y37.846 E253.63329
G1 X111.791 Y34.249 E254.23952
G1 X110.777 Y34.249 E254.36033
G1 X108.195 Y36.832 E254.79571
G1 X108.195 Y35.819 E254.91652
G1 X109.764 Y34.249 E255.18105
G1 X108.750 Y34.249 E255.30186
G1 X108.195 Y34.805 E255.39549
G1 Z0.400 F7800.000
G1 E245.39549 F2400.00000
G92 E0
G92 E0
T0
G1 X77.614 Y33.629 F7800.000
G1 E10.00000 F2400.00000
G1 F1800
G1 X77.614 Y68.813 E14.17856
G1 X33.921 Y68.813 E19.36780
G1 X33.921 Y33.629 E23.54636
G1 X77.554 Y33.629 E28.72847
G1 X78.328 Y32.915 F7800.000
G1 F1800
G1 X78.328 Y69.527 E33.07667
G1 X33.207 Y69.527 E38.43554
G1 X33.207 Y32.915 E42.78374
G1 X78.268 Y32.915 E48.13549
G1 X79.042 Y32.201 F7800.000
G1 F1800
G1 X79.042 Y70.241 E52.65331
G1 X32.492 Y70.241 E58.18182
G1 X32.492 Y32.201 E62.69965
G1 X78.982 Y32.201 E68.22104
G1 X78.926 Y32.584 F7800.000
G1 E66.22104 F2400.00000
G92 E0
G1 X76.622 Y68.376 F7800.000
G1 E2.00000 F2400.00000
G1 F1800
G1 X77.178 Y67.821 E2.09366
G1 X77.178 Y66.807 E2.21447
G1 X75.608 Y68.376 E2.47898
G1 X74.595 Y68.376 E2.59979
G1 X77.178 Y65.793 E3.03516
G1 X77.178 Y64.780 E3.15597
G1 X73.581 Y68.376 E3.76219
G1 X72.568 Y68.376 E3.88300
G1 X77.178 Y63.766 E4.66007
G1 X77.178 Y62.753 E4.78088
G1 X71.554 Y68.376 E5.72881
G1 X70.540 Y68.376 E5.84962
G1 X77.178 Y61.739 E6.96840
G1 X77.178 Y60.725 E7.08921
G1 X69.527 Y68.376 E8.37884
G1 X68.513 Y68.376 E8.49966
G1 X77.178 Y59.712 E9.96014
G1 X77.178 Y58.698 E10.08095
G1 X67.500 Y68.376 E11.71230
G1 X66.486 Y68.376 E11.83311
G1 X77.178 Y57.685 E13.63530
G1 X77.178 Y56.671 E13.75611
G1 X65.472 Y68.376 E15.72916
G1 X64.459 Y68.376 E15.84997
G1 X77.178 Y55.657 E17.99387
G1 X77.178 Y54.644 E18.11468
G1 X63.445 Y68.376 E20.42944
G1 X62.432 Y68.376 E20.55025
G1 X77.178 Y53.630 E23.03586
G1 X77.178 Y52.617 E23.15667
G1 X61.418 Y68.376 E25.81313
G1 X60.404 Y68.376 E25.93395
G1 X77.178 Y51.603 E28.76126
G1 X77.178 Y50.589 E28.88207
G1 X59.391 Y68.376 E31.88024
G1 X58.377 Y68.376 E32.00105
G1 X77.178 Y49.576 E35.17008
G1 X77.178 Y48.562 E35.29089
G1 X57.364 Y68.376 E38.63077
G1 X56.350 Y68.376 E38.75158
G1 X77.178 Y47.549 E42.26231
G1 X77.178 Y46.535 E42.38312
G1 X55.336 Y68.376 E46.06470
G1 X54.323 Y68.376 E46.18552
G1 X77.178 Y45.521 E50.03795
G1 X77.178 Y44.508 E50.15877
G1 X53.309 Y68.376 E54.18206
G1 X52.296 Y68.376 E54.30287
G1 X77.178 Y43.494 E58.49701
G1 X77.178 Y42.481 E58.61783
G1 X51.282 Y68.376 E62.98283
G1 X50.268 Y68.376 E63.10364
G1 X77.178 Y41.467 E67.63949
G1 X77.178 Y40.453 E67.76030
G1 X49.255 Y68.376 E72.46701
G1 X48.241 Y68.376 E72.58782
G1 X77.178 Y39.440 E77.46538
G1 X77.178 Y38.426 E77.58619
G1 X47.228 Y68.376 E82.63460
G1 X46.214 Y68.376 E82.75542
G1 X77.178 Y37.413 E87.97468
G1 X77.178 Y36.399 E88.09550
G1 X45.200 Y68.376 E93.48562
G1 X44.187 Y68.376 E93.60643
G1 X77.178 Y35.385 E99.16740
G1 X77.178 Y34.372 E99.28822
G1 X43.173 Y68.376 E105.02004
G1 X42.160 Y68.376 E105.14086
G1 X76.470 Y34.066 E110.92431
G1 X75.457 Y34.066 E111.04512
G1 X41.146 Y68.376 E116.82858
G1 X40.132 Y68.376 E116.94939
G1 X74.443 Y34.066 E122.73284
G1 X73.429 Y34.066 E122.85366
G1 X39.119 Y68.376 E128.63711
G1 X38.105 Y68.376 E128.75792
G1 X72.416 Y34.066 E134.54138
G1 X71.402 Y34.066 E134.66219
G1 X37.092 Y68.376 E140.44564
G1 X36.078 Y68.376 E140.56646
G1 X70.389 Y34.066 E146.34991
G1 X69.375 Y34.066 E146.47072
G1 X35.064 Y68.376 E152.25418
G1 X34.357 Y68.376 E152.33849
G1 X34.357 Y68.070 E152.37499
G1 X68.361 Y34.066 E158.10683
G1 X67.348 Y34.066 E158.22764
G1 X34.357 Y67.056 E163.78863
G1 X34.357 Y66.043 E163.90944
G1 X66.334 Y34.066 E169.29958
G1 X65.321 Y34.066 E169.42039
G1 X34.357 Y65.029 E174.63967
G1 X34.357 Y64.016 E174.76048
G1 X64.307 Y34.066 E179.80891
G1 X63.293 Y34.066 E179.92972
G1 X34.357 Y63.002 E184.80729
G1 X34.357 Y61.988 E184.92811
G1 X62.280 Y34.066 E189.63482
G1 X61.266 Y34.066 E189.75564
G1 X34.357 Y60.975 E194.29150
G1 X34.357 Y59.961 E194.41231
G1 X60.253 Y34.066 E198.77733
G1 X59.239 Y34.066 E198.89814
G1 X34.357 Y58.948 E203.09230
G1 X34.357 Y57.934 E203.21311
G1 X58.225 Y34.066 E207.23641
G1 X57.212 Y34.066 E207.35722
G1 X34.357 Y56.920 E211.20968
G1 X34.357 Y55.907 E211.33049
G1 X56.198 Y34.066 E215.01208
G1 X55.185 Y34.066 E215.13290
G1 X34.357 Y54.893 E218.64364
G1 X34.357 Y53.880 E218.76445
G1 X54.171 Y34.066 E222.10434
G1 X53.158 Y34.066 E222.22515
G1 X34.357 Y52.866 E225.39419
G1 X34.357 Y51.852 E225.51500
G1 X52.144 Y34.066 E228.51318
G1 X51.130 Y34.066 E228.63400
G1 X34.357 Y50.839 E231.46132
G1 X34.357 Y49.825 E231.58214
G1 X50.117 Y34.066 E234.23861
G1 X49.103 Y34.066 E234.35942
G1 X34.357 Y48.812 E236.84505
G1 X34.357 Y47.798 E236.96586
G1 X48.090 Y34.066 E239.28063
G1 X47.076 Y34.066 E239.40144
G1 X34.357 Y46.784 E241.54535
G1 X34.357 Y45.771 E241.66616
G1 X46.062 Y34.066 E243.63922
G1 X45.049 Y34.066 E243.76004
G1 X34.357 Y44.757 E245.56224
G1 X34.357 Y43.744 E245.68305
G1 X44.035 Y34.066 E247.31441
G1 X43.022 Y34.066 E247.43522
G1 X34.357 Y42.730 E248.89572
G1 X34.357 Y41.717 E249.01653
G1 X42.008 Y34.066 E250.30618
G1 X40.994 Y34.066 E250.42699
G1 X34.357 Y40.703 E251.54578
G1 X34.357 Y39.689 E251.66659
G1 X39.981 Y34.066 E252.61453
G1 X38.967 Y34.066 E252.73534
G1 X34.357 Y38.676 E253.51243
G1 X34.357 Y37.662 E253.63324
G1 X37.954 Y34.066 E254.23947
G1 X36.940 Y34.066 E254.36028
G1 X34.357 Y36.649 E254.79566
G1 X34.357 Y35.635 E254.91647
G1 X35.926 Y34.066 E255.18100
G1 X34.913 Y34.066 E255.30181
G1 X34.357 Y34.621 E255.39544
M104 S200 T0 ; set temperature
M104 S200 T1 ; set temperature
M140 S50 ; set bed temperature
G1 Z0.600 F7800.000
G1 E245.39544 F2400.00000
G92 E0
G92 E0
T1
G1 X152.086 Y69.630 F7800.000
G1 E10.00000 F2400.00000
G1 F3600
G1 X107.124 Y69.630 E11.93314
G1 X107.124 Y33.179 E13.50039
G1 X152.086 Y33.179 E15.43353
G1 X152.086 Y69.570 E16.99821
G1 X152.603 Y70.148 F7800.000
G1 F3600
G1 X106.607 Y70.148 E18.97581
G1 X106.607 Y32.662 E20.58753
G1 X152.603 Y32.662 E22.56513
G1 X152.603 Y70.088 E24.17427
G1 X153.060 Y70.605 F7800.000
G1 F1800
G1 X106.150 Y70.605 E25.72311
G1 X106.150 Y32.205 E26.99097
G1 X153.060 Y32.205 E28.53981
G1 X153.060 Y70.545 E29.80570
G1 X152.670 Y70.514 F7800.000
G1 X151.770 Y33.897 F7800.000
G1 F1200
G1 X151.367 Y33.495 E29.83028
G1 X150.633 Y33.495 E29.86201
G1 X151.770 Y34.632 E29.93147
G1 X151.770 Y35.366 E29.96320
G1 X149.898 Y33.495 E30.07754
G1 X149.163 Y33.495 E30.10928
G1 X151.770 Y36.101 E30.26849
G1 X151.770 Y36.836 E30.30023
G1 X148.429 Y33.495 E30.50433
G1 X147.694 Y33.495 E30.53606
G1 X151.770 Y37.570 E30.78504
G1 X151.770 Y38.305 E30.81677
G1 X146.959 Y33.495 E31.11063
G1 X146.225 Y33.495 E31.14236
G1 X151.770 Y39.040 E31.48110
G1 X151.770 Y39.774 E31.51284
G1 X145.490 Y33.495 E31.89645
G1 X144.755 Y33.495 E31.92819
G1 X151.770 Y40.509 E32.35668
G1 X151.770 Y41.244 E32.38842
G1 X144.021 Y33.495 E32.86180
G1 X143.286 Y33.495 E32.89353
G1 X151.770 Y41.978 E33.41179
G1 X151.770 Y42.713 E33.44352
G1 X142.551 Y33.495 E34.00666
G1 X141.817 Y33.495 E34.03839
G1 X151.770 Y43.448 E34.64641
G1 X151.770 Y44.182 E34.67815
G1 X141.082 Y33.495 E35.33104
G1 X140.347 Y33.495 E35.36278
G1 X151.770 Y44.917 E36.06055
G1 X151.770 Y45.652 E36.09229
G1 X139.613 Y33.495 E36.83494
G1 X138.878 Y33.495 E36.86668
G1 X151.770 Y46.386 E37.65421
G1 X151.770 Y47.121 E37.68595
G1 X138.143 Y33.495 E38.51836
G1 X137.409 Y33.495 E38.55010
G1 X151.770 Y47.856 E39.42740
G1 X151.770 Y48.590 E39.45913
G1 X136.674 Y33.495 E40.38131
G1 X135.939 Y33.495 E40.41304
G1 X151.770 Y49.325 E41.38010
G1 X151.770 Y50.060 E41.41183
G1 X135.205 Y33.495 E42.42377
G1 X134.470 Y33.495 E42.45550
G1 X151.770 Y50.795 E43.51232
G1 X151.770 Y51.529 E43.54405
G1 X133.735 Y33.495 E44.64575
G1 X133.000 Y33.495 E44.67748
G1 X151.770 Y52.264 E45.82406
G1 X151.770 Y52.999 E45.85579
G1 X132.266 Y33.495 E47.04725
G1 X131.531 Y33.495 E47.07898
G1 X151.770 Y53.733 E48.31532
G1 X151.770 Y54.468 E48.34705
G1 X130.796 Y33.495 E49.62826
G1 X130.062 Y33.495 E49.66000
G1 X151.770 Y55.203 E50.98609
G1 X151.770 Y55.937 E51.01783
G1 X129.327 Y33.495 E52.38880
G1 X128.592 Y33.495 E52.42054
G1 X151.770 Y56.672 E53.83639
G1 X151.770 Y57.407 E53.86813
G1 X127.858 Y33.495 E55.32886
G1 X127.123 Y33.495 E55.36060
G1 X151.770 Y58.141 E56.86621
G1 X151.770 Y58.876 E56.89795
G1 X126.388 Y33.495 E58.44844
G1 X125.654 Y33.495 E58.48017
G1 X151.770 Y59.611 E60.07555
G1 X151.770 Y60.345 E60.10728
G1 X124.919 Y33.495 E61.74754
G1 X124.184 Y33.495 E61.77927
G1 X151.770 Y61.080 E63.46440
G1 X151.770 Y61.815 E63.49614
G1 X123.450 Y33.495 E65.22615
G1 X122.715 Y33.495 E65.25789
G1 X151.770 Y62.549 E67.03278
G1 X151.770 Y63.284 E67.06452
G1 X121.980 Y33.495 E68.88429
G1 X121.246 Y33.495 E68.91602
G1 X151.770 Y64.019 E70.78068
G1 X151.770 Y64.753 E70.81241
G1 X120.511 Y33.495 E72.72194
G1 X119.776 Y33.495 E72.75368
G1 X151.770 Y65.488 E74.70809
G1 X151.770 Y66.223 E74.73983
G1 X119.042 Y33.495 E76.73912
G1 X118.307 Y33.495 E76.77085
G1 X151.770 Y66.957 E78.81503
G1 X151.770 Y67.692 E78.84676
G1 X117.572 Y33.495 E80.93581
G1 X116.838 Y33.495 E80.96755
G1 X151.770 Y68.427 E83.10148
G1 X151.770 Y69.161 E83.13322
